X: 34241
T: Reel With The Birl, The
R: reel
M: 4/4
K: Edorian
~E2BE dEBE|~E2BE AFDE|~E2BE dEBd|efdB AFDE|
~E2BE dEBE|~E2BE AFDE|~E2BE ~E2BE|~E2dB (3.A.c.A FA||
BA (3.B.^c.d e.A.Ag|fdd^c dfaf|gfef ~g3e|f~a3 afdf|
g2be f2af|(3.g.f.e fd eBBA|GBB2 "*"c3A|B2dB AFDE||

